evolvere-2-blue-mono/apps/24/google-drive.svg

<?xml version="1.0" encoding="UTF-8"?>
<!-- Created with Inkscape (http://www.inkscape.org/) -->
<svg width="24" height="24" version="1.1" xmlns="http://www.w3.org/2000/svg" xmlns:cc="http://creativecommons.org/ns#" xmlns:dc="http://purl.org/dc/elements/1.1/" xmlns:rdf="http://www.w3.org/1999/02/22-rdf-syntax-ns#">
	<defs>
		<style id="current-color-scheme" type="text/css">.ColorScheme-Text {color:#090d11;}.ColorScheme-Background{color:#ffffff;}</style>
	</defs>
	<metadata>
		<rdf:RDF>
			<cc:Work rdf:about="">
				<dc:format>image/svg+xml</dc:format>
				<dc:type rdf:resource="http://purl.org/dc/dcmitype/StillImage"/>
			</cc:Work>
		</rdf:RDF>
	</metadata>
	<path id="c" class="ColorScheme-Text" d="m 9,4 5.4375,9.96875 h 6 L 15,4 Z M 8.34375,5.1875 3,15 l 3,5 5.3125,-9.375 z m 1.9375,9.78125 L 7.5,20 18.1875,20.03125 21,15 Z" style="fill-opacity:.75;fill:currentColor"/>
	<path id="b" class="ColorScheme-Background" d="m7.0723 3 0.55273 1-0.34375 0.625-5.3438 9.8125-0.3125 0.59375 0.34375 0.59375 3 5 1.0625 1.75 0.65625-1.1875h0.0625v-0.1875h12.264l0.23633-0.375 2.8125-5.0312 0.25-0.4375h0.15625l-0.09375-0.15625 0.65625-1.1875h-1.3125l-0.21875-0.40625-5.4375-9.9688-0.24023-0.4375h-8.75zm1.9277 1h6l5.4375 9.9688h-6zm-0.65625 1.1875 2.9688 5.4375-5.3125 9.375-3-5 5.3438-9.8125zm3.5938 6.7188 1.0312 1.875h-2.0625l1.0312-1.875zm-1.6562 3.0625 10.719 0.03125-2.8125 5.0312-10.688-0.03125 2.7812-5.0312z" style="fill-opacity:.5;fill:currentColor"/>
</svg>

<?xml version="1.0" encoding="UTF-8" standalone="no"?>
<!-- Created with Inkscape (http://www.inkscape.org/) -->

<svg
   xmlns:dc="http://purl.org/dc/elements/1.1/"
   xmlns:cc="http://creativecommons.org/ns#"
   xmlns:rdf="http://www.w3.org/1999/02/22-rdf-syntax-ns#"
   xmlns:svg="http://www.w3.org/2000/svg"
   xmlns="http://www.w3.org/2000/svg"
   xmlns:sodipodi="http://sodipodi.sourceforge.net/DTD/sodipodi-0.dtd"
   xmlns:inkscape="http://www.inkscape.org/namespaces/inkscape"
   width="24"
   height="24"
   id="svg13094"
   version="1.1"
   inkscape:version="0.48.3.1 r9886"
   sodipodi:docname="google-drive.svg">
  <sodipodi:namedview
     id="base"
     pagecolor="#ffffff"
     bordercolor="#666666"
     borderopacity="1.0"
     inkscape:pageopacity="0.0"
     inkscape:pageshadow="2"
     inkscape:zoom="22.627418"
     inkscape:cx="7.6047552"
     inkscape:cy="9.3163796"
     inkscape:document-units="px"
     inkscape:current-layer="layer1"
     showgrid="true"
     inkscape:snap-bbox="true"
     inkscape:bbox-paths="true"
     inkscape:bbox-nodes="true"
     inkscape:snap-bbox-edge-midpoints="true"
     inkscape:snap-bbox-midpoints="true"
     inkscape:object-paths="true"
     inkscape:snap-intersection-paths="true"
     inkscape:object-nodes="true"
     inkscape:snap-smooth-nodes="true"
     inkscape:snap-midpoints="true"
     inkscape:snap-object-midpoints="true"
     inkscape:snap-center="true"
     showguides="false"
     inkscape:guide-bbox="true"
     inkscape:window-width="1920"
     inkscape:window-height="1023"
     inkscape:window-x="-10"
     inkscape:window-y="35"
     inkscape:window-maximized="1"
     inkscape:snap-global="false"
     fit-margin-top="0"
     fit-margin-left="0"
     fit-margin-right="0"
     fit-margin-bottom="0"
     showborder="true"
     inkscape:showpageshadow="false">
    <sodipodi:guide
       id="guide16149"
       position="6601.5878,647.00745"
       orientation="0,1" />
    <sodipodi:guide
       id="guide16151"
       position="6374.4449,597.99875"
       orientation="0,1" />
    <sodipodi:guide
       id="guide16153"
       position="6440.1591,622.50305"
       orientation="0,1" />
    <sodipodi:guide
       id="guide17725"
       position="6433.7306,542.35585"
       orientation="0,1" />
    <sodipodi:guide
       id="guide9456"
       position="6931.2289,150.48606"
       orientation="1,0" />
    <sodipodi:guide
       id="guide9458"
       position="6755.4789,515.53501"
       orientation="0,1" />
    <sodipodi:guide
       id="guide9468"
       position="6526.7092,460.6296"
       orientation="0,1" />
    <sodipodi:guide
       id="guide9470"
       position="6551.2289,481.99958"
       orientation="0,1" />
    <sodipodi:guide
       id="guide11159"
       position="6419.2289,196.00006"
       orientation="1,0" />
    <sodipodi:guide
       id="guide13980"
       position="6732.2601,460.03461"
       orientation="1,0" />
    <sodipodi:guide
       orientation="0,1"
       position="4878.229,-914.9999"
       id="guide3972" />
    <sodipodi:guide
       orientation="1,0"
       position="5058.229,-1042.9999"
       id="guide3974" />
    <sodipodi:guide
       orientation="0,1"
       position="4752.229,-1277.9998"
       id="guide3976" />
    <sodipodi:guide
       orientation="1,0"
       position="4725.229,-1136.9999"
       id="guide3978" />
    <sodipodi:guide
       orientation="1,0"
       position="74.999929,328.00006"
       id="guide4287" />
    <sodipodi:guide
       orientation="0,1"
       position="74.999929,328.00006"
       id="guide4289" />
    <inkscape:grid
       type="xygrid"
       id="grid3248"
       empspacing="5"
       visible="true"
       enabled="true"
       snapvisiblegridlinesonly="true"
       originx="9.7771128e-05px"
       originy="11.000061px" />
  </sodipodi:namedview>
  <defs
     id="defs13096" />
  <metadata
     id="metadata13099">
    <rdf:RDF>
      <cc:Work
         rdf:about="">
        <dc:format>image/svg+xml</dc:format>
        <dc:type
           rdf:resource="http://purl.org/dc/dcmitype/StillImage" />
        <dc:title />
      </cc:Work>
    </rdf:RDF>
  </metadata>
  <g
     transform="translate(8065.8735,-494.93235)"
     id="layer1"
     inkscape:groupmode="layer"
     inkscape:label="Camada 1">
    <path
       id="path3066"
       d="m -8056.8735,498.93235 5.4375,9.96875 6,0 -5.4375,-9.96875 -6,0 z m -0.6562,1.1875 -5.3438,9.8125 3,5 5.3125,-9.375 -2.9687,-5.4375 z m 1.9375,9.78125 -2.7813,5.03125 10.6875,0.0312 2.8125,-5.03125 -10.7187,-0.0312 z"
       style="color:#000000;fill:#27303a;fill-opacity:0.753280819999999968;fill-rule:nonzero;stroke:none;stroke-width:14315.15820312;marker:none;visibility:visible;display:inline;overflow:visible;enable-background:accumulate"
       inkscape:connector-curvature="0" />
    <path
       style="font-size:medium;font-style:normal;font-variant:normal;font-weight:normal;font-stretch:normal;text-indent:0;text-align:start;text-decoration:none;line-height:normal;letter-spacing:normal;word-spacing:normal;text-transform:none;direction:ltr;block-progression:tb;writing-mode:lr-tb;text-anchor:start;baseline-shift:baseline;color:#000000;fill:#f1f3f5;fill-opacity:0.90288714000000003;fill-rule:nonzero;stroke:none;stroke-width:2;marker:none;visibility:visible;display:inline;overflow:visible;enable-background:accumulate;font-family:Sans;-inkscape-font-specification:Sans"
       d="M 8.34375 2.6875 L 8.28125 2.8125 L 6.96875 2.8125 L 7.625 4 L 7.28125 4.625 L 1.9375 14.4375 L 1.625 15.03125 L 1.96875 15.625 L 4.96875 20.625 L 6.03125 22.375 L 6.6875 21.1875 L 7.5 21.1875 L 18.1875 21.21875 L 18.875 21.21875 L 19.25 20.625 L 22.0625 15.59375 L 22.3125 15.15625 L 22.46875 15.15625 L 22.375 15 L 23.03125 13.8125 L 21.71875 13.8125 L 21.5 13.40625 L 16.0625 3.4375 L 15.71875 2.8125 L 15 2.8125 L 9 2.8125 L 8.40625 2.8125 L 8.34375 2.6875 z M 9 4 L 15 4 L 20.4375 13.96875 L 14.4375 13.96875 L 9 4 z M 8.34375 5.1875 L 11.3125 10.625 L 6 20 L 3 15 L 8.34375 5.1875 z M 11.9375 11.90625 L 12.96875 13.78125 L 10.90625 13.78125 L 11.9375 11.90625 z M 10.28125 14.96875 L 21 15 L 18.1875 20.03125 L 7.5 20 L 10.28125 14.96875 z "
       transform="translate(-8065.8735,494.93235)"
       id="polygon3064-8" />
  </g>
</svg>
